X:1
T:Title
%%score { ( 1 3 ) | 2 }
L:1/8
M:3/4
K:Ab
V:1 treble nm="Grand Piano"
V:3 treble 
V:2 bass 
V:1
 z2 z2[Q:1/4=100] [CA][DB] | [Ec][CA] [CA]2 [CE]2 | [DF] [FA]3 [FA][FA] | GA B2 c2 |[M:2/4] B4 | %5
[M:1/4] [CA][DB] |[M:3/4] [Ec][CA] [CA]2 [CE]2 | [DF] [FA]3 [FA][FA] | GA c2 B2 |[M:2/4] [CA]4 | %10
[M:1/4] GA |[M:3/4] B>E E2 [EA][EB] | [Ec]>[CA] [CA]2 EE | FA [=DA]2 GA |[M:2/4] B4 | %15
[M:1/4] [CA][DB] |[M:3/4] [Ec]>[CA] [CE]2 [EA][EG] |[M:7/8] [DF][DF] [FA]3 [EG]F | %18
[M:3/4] EA c2 B2 |[M:2/4] [CA]4 |] %20
V:2
 z2 z2 [A,,E,][A,,E,] | [A,,A,][A,,E,] [A,,E,]2 [A,,A,]2 | [D,A,] [D,A,]3 [D,D][D,D] | %3
 [E,B,E][E,CE] [E,G,E]2 [E,A,E]2 |[M:2/4] [E,G,E]4 |[M:1/4] [A,,E,][A,,E,] | %6
[M:3/4] [A,,A,][A,,E,] [A,,E,]2 [A,,A,]2 | [D,A,] [D,A,]3 [D,D][D,D] | %8
 [E,B,E][E,CE] [E,A,E]2 [E,G,D]2 |[M:2/4] [A,,A,]4 |[M:1/4] [E,B,E][E,CE] | %11
[M:3/4] [E,DE]>[E,G,B,] [E,G,B,]2 [C,A,][B,,G,] | [A,,A,]>[A,,E,] [A,,E,]2 [C,A,][C,A,] | %13
 [D,A,D][D,F,D] [B,,F,]2 [B,,F,]2 |[M:2/4] [E,G,D]4 |[M:1/4] [A,,E,][A,,E,] | %16
[M:3/4] [A,,A,]>[A,,A,] [A,,A,]2 [C,A,][C,A,] |[M:7/8] [D,A,][D,A,] [D,A,]3 [D,A,][D,A,D] | %18
[M:3/4] [E,A,C][E,A,E] [E,A,E]2 [E,G,D]2 |[M:2/4] [A,,E,A,]4 |] %20
V:3
 x6 | x6 | x6 | x6 |[M:2/4] x4 |[M:1/4] x2 |[M:3/4] x6 | x6 | x6 |[M:2/4] x4 |[M:1/4] x2 | %11
[M:3/4] x6 | x6 | z2 z2 =D2 |[M:2/4] x4 |[M:1/4] x2 |[M:3/4] x6 |[M:7/8] x7 |[M:3/4] x6 | %19
[M:2/4] x4 |] %20

